icons/fill-new-other-bicycle.svg

<svg xmlns="http://www.w3.org/2000/svg" width="32px" height="32px" viewBox="0 0 32 32" version="1.1">
    <title>fill-new-other-bicycle</title>
    <g id="fill-new-other-bicycle" stroke-width="1" fill-rule="evenodd">
        <path d="M20,4 C20.4588676,4 20.8588507,4.31229737 20.9701425,4.75746437 L23.782266,16.0038772 L23.8908971,16.000972 L24,16 C27.3137085,16 30,18.6862915 30,22 C30,25.3137085 27.3137085,28 24,28 C21.0272855,28 18.5595044,25.8381232 18.0830939,23.0008069 L13.9169061,23.0008069 C13.4404956,25.8381232 10.9727145,28 8,28 C4.6862915,28 2,25.3137085 2,22 C2,18.8149628 4.48172439,16.2095634 7.6169446,16.0120304 L6.279,12 L3,12 C2.48716416,12 2.06449284,11.6139598 2.00672773,11.1166211 L2,11 C2,10.4477153 2.44771525,10 3,10 L7,10 C7.43043041,10 7.81256925,10.2754301 7.9486833,10.6837722 L9.8150433,16.2794281 C10.193971,16.3995466 10.5566076,16.5562733 10.8988005,16.7454555 L19.883,8.659 L19.218,6 L15,6 C14.4871642,6 14.0644928,5.61395981 14.0067277,5.11662113 L14,5 C14,4.44771525 14.4477153,4 15,4 L20,4 Z M20.432,10.855 L12.4816594,18.0105793 C13.2160631,18.8350104 13.7263957,19.863409 13.9170737,21.0001915 L18.0829263,21.0001915 C18.4358433,18.8961744 19.8837867,17.1634436 21.8207207,16.4080349 L20.432,10.855 Z" id="&#24418;&#29366;" fill-rule="nonzero" />
    </g>
</svg>

<svg xmlns="http://www.w3.org/2000/svg" viewBox="0 0 32 32"><path fill="currentColor" d="M20 4a1 1 0 0 1 .97.757l2.812 11.247.109-.003L24 16a6 6 0 1 1-5.917 7h-4.166A6.002 6.002 0 0 1 2 22a6 6 0 0 1 5.617-5.988L6.279 12H3a1 1 0 0 1-.993-.883L2 11a1 1 0 0 1 1-1h4a1 1 0 0 1 .949.684l1.866 5.595c.379.12.742.277 1.084.466l8.984-8.086L19.218 6H15a1 1 0 0 1-.993-.883L14 5a1 1 0 0 1 1-1zm.432 6.855-7.95 7.156A5.98 5.98 0 0 1 13.917 21h4.166a6.009 6.009 0 0 1 3.738-4.593z"/></svg>
